X:289
%%etbk:tnset id:88,pos:2,rep:3x,ant:
%%etbk:wsite http://www.thesession.org/tunes/display/797
%%etbk:pldat 2016-09-06T17:42,2016-08-05T17:26,2015-04-21T15:31,2015-03-26T18:41,2014-12-27T14:48,2014-12-08T18:53,2014-12-03T17:43,2014-12-02T17:11,2014-05-11T12:09,2014-04-28T18:20,2014-04-06T15:24,2014-03-15T15:26,2014-02-27T18:51,2014-02-26T17:21,2014-02-14T17:23,2014-02-11T18:00,2014-02-09T13:29,2013-11-06T16:44,2013-10-24T18:04,2013-10-23T18:46,2013-10-21T17:35,2013-10-20T14:01,2013-09-12T18:09,2013-08-29T16:05,2013-08-26T18:17,2013-05-13T19:09,2013-05-12T18:51,2013-05-09T17:30,2013-05-02T18:33
T:Winnie Hayes'
Z: Piano Box Version by Martin Fleischmann
H: Created 2013-02-19 /  Last Modified 2013-02-19
M:6/8
R:jig
K:Edor
|: "em"!5!BA!2!F !1!E !3!(3E!2!E!1!E | !2!F!1!EE EF!4!A | !5!BAF !1!EFG | "D"!2!F!1!DD !2!F!4!AA |
"em"!5!BAF !1!E !3!(3E!2!E!1!E | !2!F!1!EE E3 | !5!ed!2!B !1!ABd | !5!edB !1!A!2!F!1!A:||
|: "em"!2!Bc!4!d !2!eee | !3!fed !2!eee | !1!B!2!ee Bee | "D"!3!fff !1!def |
"em"!4!ggg !3!fff | !2!e!1!d!2!B !4![e2B]f | !4!e!3!d!2!B !1!AB!4!d | !5!edB !1!A!2!F!1!A:||


